antibot/app/images/dist/oport-icon2.svg

<svg width="34" height="35" viewBox="0 0 34 35" fill="none" xmlns="http://www.w3.org/2000/svg">
<path d="M28.4335 10.9048L29.7501 7.98809L32.6668 6.67142C32.8123 6.60514 32.9357 6.4984 33.0221 6.36394C33.1086 6.22948 33.1546 6.07297 33.1546 5.91309C33.1546 5.75321 33.1086 5.59671 33.0221 5.46225C32.9357 5.32779 32.8123 5.22105 32.6668 5.15476L29.7501 3.83809L28.4335 0.904758C28.3672 0.759267 28.2604 0.635917 28.126 0.54942C27.9915 0.462923 27.835 0.416931 27.6751 0.416931C27.5153 0.416931 27.3588 0.462923 27.2243 0.54942C27.0898 0.635917 26.9831 0.759267 26.9168 0.904758L25.6001 3.82142L22.6668 5.13809C22.5213 5.20438 22.398 5.31112 22.3115 5.44558C22.225 5.58004 22.179 5.73654 22.179 5.89642C22.179 6.0563 22.225 6.21281 22.3115 6.34727C22.398 6.48173 22.5213 6.58847 22.6668 6.65476L25.5835 7.97142L26.9001 10.9048C27.2001 11.5548 28.1335 11.5548 28.4335 10.9048ZM15.1668 13.4048L12.5168 7.57142C11.9335 6.27142 10.0668 6.27142 9.48348 7.57142L6.83348 13.4048L1.00015 16.0548C-0.299853 16.6548 -0.299853 18.5048 1.00015 19.0881L6.83348 21.7381L9.48348 27.5714C10.0835 28.8714 11.9335 28.8714 12.5168 27.5714L15.1668 21.7381L21.0001 19.0881C22.3001 18.4881 22.3001 16.6381 21.0001 16.0548L15.1668 13.4048ZM26.9001 24.2381L25.5835 27.1548L22.6668 28.4714C22.5213 28.5377 22.398 28.6445 22.3115 28.7789C22.225 28.9134 22.179 29.0699 22.179 29.2298C22.179 29.3896 22.225 29.5461 22.3115 29.6806C22.398 29.8151 22.5213 29.9218 22.6668 29.9881L25.5835 31.3048L26.9001 34.2381C26.9664 34.3836 27.0732 34.5069 27.2076 34.5934C27.3421 34.6799 27.4986 34.7259 27.6585 34.7259C27.8184 34.7259 27.9749 34.6799 28.1093 34.5934C28.2438 34.5069 28.3505 34.3836 28.4168 34.2381L29.7335 31.3214L32.6668 30.0048C32.8123 29.9385 32.9357 29.8317 33.0221 29.6973C33.1086 29.5628 33.1546 29.4063 33.1546 29.2464C33.1546 29.0865 33.1086 28.93 33.0221 28.7956C32.9357 28.6611 32.8123 28.5544 32.6668 28.4881L29.7501 27.1714L28.4335 24.2381C28.3652 24.0924 28.2568 23.9692 28.1211 23.8829C27.9853 23.7965 27.8277 23.7507 27.6668 23.7507C27.5059 23.7507 27.3483 23.7965 27.2126 23.8829C27.0768 23.9692 26.9684 24.0924 26.9001 24.2381Z" fill="#0085FF"/>
</svg>

<svg width="34" height="35" fill="none" xmlns="http://www.w3.org/2000/svg"><path d="m28.433 10.905 1.317-2.917 2.917-1.317a.833.833 0 0 0 0-1.516L29.75 3.838 28.433.905a.834.834 0 0 0-1.516 0L25.6 3.82l-2.933 1.317a.833.833 0 0 0 0 1.517l2.916 1.316 1.317 2.934c.3.65 1.234.65 1.534 0Zm-13.266 2.5-2.65-5.834c-.583-1.3-2.45-1.3-3.034 0l-2.65 5.834L1 16.055c-1.3.6-1.3 2.45 0 3.033l5.833 2.65 2.65 5.833c.6 1.3 2.45 1.3 3.034 0l2.65-5.833L21 19.088c1.3-.6 1.3-2.45 0-3.033l-5.833-2.65ZM26.9 24.238l-1.316 2.917-2.917 1.316a.834.834 0 0 0 0 1.517l2.916 1.317 1.317 2.933a.834.834 0 0 0 1.517 0l1.316-2.917 2.934-1.316a.833.833 0 0 0 0-1.517l-2.917-1.317-1.317-2.933a.847.847 0 0 0-1.533 0Z" fill="#0085FF"/></svg>
